packages/core/src/svg/ui/collapse.svg

<svg xmlns="http://www.w3.org/2000/svg" viewBox="0 0 24 24"><g fill="none" fill-rule="evenodd"><path d="M0 0h24v24H0z"/><path d="M17.5 2l-5 5-5-5L6 3.5l6.5 6.5L19 3.5 17.5 2zM17.5 22l-5-5-5 5L6 20.5l6.5-6.5 6.5 6.5-1.5 1.5z" fill="currentColor"/></g></svg>

<svg width="24" height="24" viewBox="0 0 24 24" fill="none" xmlns="http://www.w3.org/2000/svg">
<path d="M17.5 2L12.5 7L7.5 2L6 3.5L12.5 10L19 3.5L17.5 2Z" fill="currentColor"/>
<path d="M17.5 22L12.5 17L7.5 22L6 20.5L12.5 14L19 20.5L17.5 22Z" fill="currentColor"/>
</svg>
